icons/svg/phone-voip.svg

﻿<?xml version="1.0" encoding="utf-8"?>
<!DOCTYPE svg PUBLIC "-//W3C//DTD SVG 1.1//EN" "http://www.w3.org/Graphics/SVG/1.1/DTD/svg11.dtd">
<svg xmlns="http://www.w3.org/2000/svg" xmlns:xlink="http://www.w3.org/1999/xlink" version="1.1" baseProfile="full" width="24" height="24" viewBox="0 0 24.00 24.00" enable-background="new 0 0 24.00 24.00" xml:space="preserve">
	<path fill="#000000" fill-opacity="1" stroke-width="1.33333" stroke-linejoin="miter" d="M 13,17L 13,19L 14,19C 14.5523,19 15,19.4477 15,20L 22,20L 22,22L 15,22C 15,22.5523 14.5523,23 14,23L 10,23C 9.44772,23 9.00001,22.5523 9.00001,22L 2,22L 2,20L 9.00001,20C 9.00001,19.4477 9.44772,19 10,19L 11,19L 11,17L 13,17 Z M 23.7001,7.6699C 23.88,7.84983 24,8.08973 24,8.36961C 24,8.64949 23.89,8.89939 23.7101,9.07931L 21.2311,11.5583C 21.0512,11.7382 20.8013,11.8482 20.5214,11.8482C 20.2516,11.8482 20.0017,11.7482 19.8217,11.5683C 19.0221,10.8386 18.1324,10.2088 17.1528,9.71905C 16.823,9.55911 16.5931,9.20926 16.5931,8.81942L 16.5931,5.72071C 15.1437,5.25091 13.5943,5.00101 11.995,5.00101C 10.3957,5.00101 8.84631,5.25091 7.39692,5.73071L 7.39692,8.82942C 7.39692,9.22925 7.16701,9.56911 6.83715,9.72904C 5.86755,10.2188 4.96793,10.8386 4.17826,11.5783C 3.99833,11.7482 3.74844,11.8582 3.47855,11.8582C 3.19867,11.8582 2.94877,11.7482 2.76885,11.5683L 0.28988,9.08931C 0.109955,8.90938 1.27157e-006,8.65949 1.27157e-006,8.37961C 1.27157e-006,8.09972 0.109955,7.84983 0.28988,7.6699C 3.33861,4.78111 7.45689,3.00185 11.995,3.00185C 16.5331,3.00185 20.6514,4.78111 23.7001,7.6699 Z M 11,10L 11,15L 10,15L 10,10L 11,10 Z M 12,10L 15,10L 15,13L 13,13L 13,15L 12,15L 12,10 Z M 14,12L 14,11L 13,11L 13,12L 14,12 Z "/>
</svg>

<svg xmlns="http://www.w3.org/2000/svg" version="1.1" baseProfile="full" width="24" height="24" viewBox="0 0 24.00 24.00" xml:space="preserve"><path fill="#000" fill-opacity="1" stroke-width="1.333" stroke-linejoin="miter" d="M13 17v2h1c.552 0 1 .448 1 1h7v2h-7c0 .552-.448 1-1 1h-4c-.552 0-1-.448-1-1H2v-2h7c0-.552.448-1 1-1h1v-2h2zm10.7-9.33c.18.18.3.42.3.7 0 .28-.11.53-.29.71l-2.48 2.478c-.18.18-.43.29-.71.29-.268 0-.518-.1-.698-.28-.8-.73-1.69-1.36-2.67-1.85-.33-.16-.56-.51-.56-.9V5.722C15.145 5.25 13.595 5 11.996 5c-1.6 0-3.15.25-4.598.73v3.1c0 .4-.23.74-.56.9-.97.49-1.87 1.11-2.66 1.848-.18.17-.43.28-.698.28-.28 0-.53-.11-.71-.29L.29 9.088C.11 8.91 0 8.66 0 8.38c0-.28.11-.53.29-.71 3.05-2.89 7.167-4.668 11.705-4.668S20.65 4.782 23.7 7.67zM11 10v5h-1v-5h1zm1 0h3v3h-2v2h-1v-5zm2 2v-1h-1v1h1z"/></svg>
